assets/images/afrikons/star.svg

<svg viewBox="0 0 50 50" xmlns="http://www.w3.org/2000/svg"><path d="m0 0h50v50h-50z" fill="none"/><path d="m26.74 2.21 6.67 13.52 14.93 2.17a1.94 1.94 0 0 1 1.07 3.31l-10.8 10.53 2.55 14.86a1.93 1.93 0 0 1 -2.81 2l-13.35-6.97-13.35 7a1.93 1.93 0 0 1 -2.81-2l2.55-14.86-10.8-10.56a1.94 1.94 0 0 1 1.07-3.31l14.93-2.17 6.67-13.52a1.94 1.94 0 0 1 3.48 0z"/></svg>

<svg xmlns="http://www.w3.org/2000/svg" viewBox="0 0 50 50"><defs><style>.cls-1{fill:none;}</style></defs><title>star</title><g id="Layer_2" data-name="Layer 2"><g id="Layer_1-2" data-name="Layer 1"><rect class="cls-1" width="50" height="50"/><path d="M26.74,2.21l6.67,13.52L48.34,17.9a1.94,1.94,0,0,1,1.07,3.31L38.61,31.74,41.16,46.6a1.93,1.93,0,0,1-2.81,2L25,41.63l-13.35,7a1.93,1.93,0,0,1-2.81-2l2.55-14.86L.59,21.21A1.94,1.94,0,0,1,1.66,17.9l14.93-2.17L23.26,2.21A1.94,1.94,0,0,1,26.74,2.21Z"/></g></g></svg>
